X: 554
T: Xiang gege
%%abc-version 2.0
%%abcx-abcm2ps-target-version 5.9.1 (29 Sep 2008)
%%abc-creator hum2abc beta
%%abcx-conversion-date 2013/10/02 07:52:30
%%abc-edited-by Helmut Schaffrath
%%humdrum-veritas 2770530852
%%humdrum-veritas-data 385277857
%%continueall 1
%%barnumbers 0
L: 1/8
M: 2/4
K: A
B2F A [I:setbarnb 1]| 
BB2d/ e/ | 
f fe2 | 
e fd2 | 
d B F A | 
B2d F | 
E2F/ E/ D | 
E4 |]  



